!! 00024] TT[TB
!! Zh. Ch. M-003, NN), MZ 353)
!!!OTL: Wang ersao guonian, 2)
!!!ARE: Asia, China,ÿDongbei, Nordosten
!! Ethnic Group: Han
!! MM,
!!!SCT: C0896B
!!!YEM: Copyright 1995, estate of Helmut Schaffrath.
**kern
*ICvox
*Ivox
!! Mixed meters:  2/4; 3/4
*M2/4
*k[f#]
*G:
{8r
8dd
8dd
8b
=1
8b
8gg
16ee
16dd
8b
=2
8a
4a
8g
=3
2a}
=4
{4dd
4dd
=5
16gg
8.b
8b
8a
=6
8g
4g
8a
=7
4.g
8e}
=8
{8r
16e
16g
8b
8b
=9
8a
8dd
8f#
8e
=10
4d
4d}
=11
{8g
16g
16g
8e
8g
=12
4a
4a
=13
8g
8d
16e
16d
16e
16g
=14
2d}
=15
{8r
8dd
8dd
16dd
16b
=16
8b
8gg
16ee
16dd
8b
=17
8a
4a
8g
=18
8a
8r
4r}
=19
{16dd
16b
16dd
16dd
16dd
16b
8dd
=20
4gg
8b
8a
=21
8g
4g
8a
=22
4.g
8ee}
=23
{8r
8dd
8dd
8b
=24
8a
8dd
8f#
8e
=25
4d
4d}
=26
{8g
16e
16g
8b
16e
16g
=27
4a
4a
=28
8g
8d
16e
16d
16e
16g
=29
2d}
=30
{4ee
16b
16dd
[8a
=31
8a]
4.r
=32
8r
4dd
8b
=33
8.b
16a
16g
16a
[8e
=34
8e]
4.r}
=35
{8r
4b
8e
=36
4b
16e
16g
8e
=37
8.dd
16b
4b
=38
4dd
16b
16dd
[8a
=39
8a]
4.r}
=40
{2ffxxxx#
=41
*M3/4
2.ffxxx#
=42
1ffxxx#
=43
1ffxxx#}
{2ffxxxxx#
=44
*M2/4
4ffx#
16g
16a
[8e
=45
8e]
4.r}
=46
{8r
4dd
8b
=47
8gg
8b
8a
8a
=48
8r
4ee
8dd
=49
4g
8b
[8a
=50
8a]
4.r}
=51
{1ffxx#
=52
1ffxx#
=53
4ffxxxxxx#
=54
8B
8d
4d}
=55
{8r
4ee
8b
=56
4dd
8dd
8b
=57
8a
8g
4e}
=58
{8.a
16g
8a
8b
=59
8a
8g
4e
=60
[2d
=61
2d]}
=62
{4b
4ee
=63
8ee
8dd
4b
=64
4.a
8b
=65
4a
4g
=66
4e
4d
=67
8e
8d
8e
8g
=68
[2a
=69
4a]}
{4gg
=70
4ee
4ee
=71
8ee
8dd
4b
=72
[2a
=73
2a]}
==
!!!AGN: Xiaodiao. Shenghuo xiaochang
!! Beilage kopiert. Hier mit Noten
!!    +++Dieses Lied wurde GETEILT!!! Der erste Teil ist im vorherigen Do-
!!    kument unter gleicher Signatur kodiert.
!!    Einige Verzierungen. Vor- und Zwischenspiele weggelassen.
!!    Druckfehler: Phr.6, T.1, letzte Note: statt 5 > 5_
!!    Ergaenzungen: Klammern zwischen Phr.4 u. 5 fuer ein Zwischenspiel
!!   , Textunterlegung fehlt). +++ s. Kommentar zur ersten Haelfte! +++
!!!ONB: ESAC (Essen Associative Code) Database: CHINA
!!!AMT: irregular
!!!AIN: vox
!!!EED: Helmut Schaffrath
!!!EEV: 1.0
*-
!!!ONB: Tied note syntax fixed by Craig Sapp, 2004/05/03/
